!!!OTL: Der arme Reutersknab
!!!ARE: Europa, Mitteleuropa, Deutschland
!!!SCT: A0428
!!!YEM: Copyright 1995, estate of Helmut Schaffrath.
**kern
*ICvox
*Ivox
*M3/1
*k[b-]
*d:
{1dd
=1
1dd
1dd
1ffn
=2
1ee
1ee
1dd
=3
0ccn
1a
=4
0fn}
{1fn
=5
0a
1a
=6
0ccn
1ccn
=7
1.dd
2ee
1ffn
=8
0ee}
{1dd
=9
0ccn
1fn
=10
0a
1d
=11
0.e
=12
0d}
==
!!!AGN: Romanze, Ballade, Lied, Kriegslied
!! Ott 1534 No. 93.
!!!ONB: ESAC (Essen Associative Code) Database: ALTDEU
!!!AMT: simple triple
!!!AIN: vox
!!!EED: Helmut Schaffrath
!!!EEV: 1.0
*-
